static/assets/images/tokens/gyd.svg

<svg width="257" height="256" viewBox="0 0 257 256" fill="none" xmlns="http://www.w3.org/2000/svg">
<path d="M128.051 256C198.744 256 256.051 198.692 256.051 128C256.051 57.3076 198.744 0 128.051 0C57.3588 0 0.0512695 57.3076 0.0512695 128C0.0512695 198.692 57.3588 256 128.051 256Z" fill="#F0FF9B"/>
<path d="M128.051 256C198.744 256 256.051 198.692 256.051 128C256.051 57.3076 198.744 0 128.051 0C57.3588 0 0.0512695 57.3076 0.0512695 128C0.0512695 198.692 57.3588 256 128.051 256Z" fill="url(#paint0_radial_9528_693)"/>
<path d="M128.051 256C198.744 256 256.051 198.692 256.051 128C256.051 57.3076 198.744 0 128.051 0C57.3588 0 0.0512695 57.3076 0.0512695 128C0.0512695 198.692 57.3588 256 128.051 256Z" fill="url(#paint1_radial_9528_693)"/>
<path d="M127.976 27.876C72.7132 27.876 27.9136 72.6755 27.9136 127.938C27.9136 183.2 72.7132 228 127.976 228C144.693 227.983 161.141 223.777 175.815 215.767C190.489 207.757 202.922 196.198 211.979 182.146H212.084V117.481H182.63V172.481C176.038 180.644 167.716 187.243 158.265 191.799C148.813 196.356 138.468 198.758 127.976 198.831C88.8223 198.831 57.0822 167.091 57.0822 127.938C57.0822 88.7847 88.8223 57.0446 127.976 57.0446C139.66 57.0933 151.151 60.0291 161.426 65.5909C171.702 71.1528 180.443 79.1681 186.873 88.924L211.282 72.6787C202.169 58.9193 189.793 47.628 175.258 39.8109C160.723 31.9938 144.479 27.8937 127.976 27.876ZM166.879 117.45C159.662 128.305 150.203 138.075 140.528 147.736H182.633V117.481L166.879 117.45Z" fill="#232832"/>
<path d="M58.4756 140.626C76.6621 108.715 107.465 82.7483 137.165 73.7707C82.397 125.357 70.5883 169.561 77.9668 177.975L63.8939 188.267L42.8257 143.024L58.4756 140.626Z" fill="#232832"/>
<path d="M63.894 188.267L77.9669 177.975C84.3004 183.349 108.329 173.402 122.203 162.708L153.316 175.657C144.566 182.956 134.803 190.73 120.642 198.049L109.146 209.937L63.894 188.267Z" fill="url(#paint2_linear_9528_693)"/>
<defs>
<radialGradient id="paint0_radial_9528_693" cx="0" cy="0" r="1" gradientUnits="userSpaceOnUse" gradientTransform="translate(62.3071 237.823) rotate(-28.947) scale(187.503 170.416)">
<stop stop-color="#91F5F5"/>
<stop offset="1" stop-color="#91F5F5" stop-opacity="0"/>
</radialGradient>
<radialGradient id="paint1_radial_9528_693" cx="0" cy="0" r="1" gradientUnits="userSpaceOnUse" gradientTransform="translate(51.7541 25.2706) rotate(37.3788) scale(183.196 372.587)">
<stop stop-color="#FFB4FF"/>
<stop offset="1" stop-color="#FFB4FF" stop-opacity="0"/>
</radialGradient>
<linearGradient id="paint2_linear_9528_693" x1="107.898" y1="183.635" x2="109.166" y2="180.902" gradientUnits="userSpaceOnUse">
<stop stop-color="#232832"/>
<stop offset="1" stop-color="#232832" stop-opacity="0"/>
</linearGradient>
</defs>
</svg>

<svg xmlns="http://www.w3.org/2000/svg" fill="none" viewBox="0 0 257 256"><path fill="#F0FF9B" d="M128.051 256c70.693 0 128-57.308 128-128s-57.307-128-128-128c-70.692 0-128 57.308-128 128s57.308 128 128 128"/><path fill="url(#paint0_radial_9528_693)" d="M128.051 256c70.693 0 128-57.308 128-128s-57.307-128-128-128c-70.692 0-128 57.308-128 128s57.308 128 128 128"/><path fill="url(#paint1_radial_9528_693)" d="M128.051 256c70.693 0 128-57.308 128-128s-57.307-128-128-128c-70.692 0-128 57.308-128 128s57.308 128 128 128"/><path fill="#232832" d="M127.976 27.876c-55.263 0-100.062 44.8-100.062 100.062S72.714 228 127.976 228a100.06 100.06 0 0 0 84.003-45.854h.105v-64.665H182.63v55a70.88 70.88 0 0 1-54.654 26.35c-39.154 0-70.894-31.74-70.894-70.893s31.74-70.893 70.894-70.893a70.89 70.89 0 0 1 58.897 31.879l24.409-16.245a100.05 100.05 0 0 0-83.306-44.803m38.903 89.574c-7.217 10.855-16.676 20.625-26.351 30.286h42.105v-30.255z"/><path fill="#232832" d="M58.476 140.626c18.186-31.911 48.989-57.878 78.689-66.855-54.768 51.586-66.577 95.79-59.198 104.204l-14.073 10.292-21.068-45.243z"/><path fill="url(#paint2_linear_9528_693)" d="m63.894 188.267 14.073-10.292c6.333 5.374 30.362-4.573 44.236-15.267l31.113 12.949c-8.75 7.299-18.513 15.073-32.674 22.392l-11.496 11.888z"/><defs><radialGradient id="paint0_radial_9528_693" cx="0" cy="0" r="1" gradientTransform="matrix(164.07784 -90.75152 82.4814 149.12555 62.307 237.823)" gradientUnits="userSpaceOnUse"><stop stop-color="#91F5F5"/><stop offset="1" stop-color="#91F5F5" stop-opacity="0"/></radialGradient><radialGradient id="paint1_radial_9528_693" cx="0" cy="0" r="1" gradientTransform="rotate(37.379 -11.475 89.132)scale(183.196 372.587)" gradientUnits="userSpaceOnUse"><stop stop-color="#FFB4FF"/><stop offset="1" stop-color="#FFB4FF" stop-opacity="0"/></radialGradient><linearGradient id="paint2_linear_9528_693" x1="107.898" x2="109.166" y1="183.635" y2="180.902" gradientUnits="userSpaceOnUse"><stop stop-color="#232832"/><stop offset="1" stop-color="#232832" stop-opacity="0"/></linearGradient></defs></svg>
